X:893
T:Uist Lasses' Darling, The
R:Reel
B:The Athole Collection
M:C|
L:1/8
K:D
B|AGFd F/F/F d2|fdAF E/E/E B2|AGFd F/F/F d2|fdAF E2D:|
g|fdfa bggb|affa geeg|fdfa bggb|afdf e2 dg|fdfa bggb|afdf bgeg|
fgaf gabg|afdf e2d||

